X: 461
T: Le Reel De Voyageur
B: good tune book
B: tunes
M:4/4
R: reel
Q: 1/4=100
K:Amajor
V:1 
|:"A"A2cA eAcA|EAce "E"dAcA|"A"EAeg "D"fefg|
 [1 "A/C#"a2 ed "E/B"ceBe:|2 "A/C#"a2 ed "E"cefg||
 |:"A"agae "A/C#"agae|"D"f2 ed "E"cefg|"A"a2 g2 "F#m"f2 ed|
 [1 "E"f2 ed "A"cefg:|2 [M:6/4] "D"f2 ed "A/C#"c2 E2 "E/B"B2 AA||
% abcbook-tune_id 63ce6af3ce918ffd33c71994
% abcbook-tune_composer_id 
% abcbook-link-0 https://www.youtube.com/watch?v=3X4-b24Llp0
% abcbook-boost 0
% abcbook-difficulty 0
% abcbook-tags good tune book
% abcbook-tablature 
% abcbook-transpose 
% abcbook-tuning 
% abcbook-lastupdated 1675475002068
% abcbook-soundfonts 
% abcbook-repeats 1


